!!!COM: Richard Strauss
!!!CNT: Deutscher
!!!TXO: Deutsche 
!!!OTL: Mohnblumen
!!!OPS: Opus 22
!!!ONM: No. 2
!!!LYR: Felix Dahn
!!!ENC: Brian Bice
!!!YOR: Lieder, Complete Edition, vol. 1
!!!ODT: 1888/
!!NB: Vocal melody and text only encoded.
**kern	**silbe
*clefG2	*
*k[f#]	*
*M3/4	*
=2	=2
4r	.
4r	.
{[4dd#	{Mohn-
=3	=3
8dd#]	|
8ee	|
8ddn	-blu-
8cc	-men
8b	sind
16r	.
16a	die
=4	=4
2a	run-
8b}	-den.}
8r	.
=5	=5
8r	.
{(4dd#	{rot-
8ee)	|
16ddn	-blu-
16cc	-ti-
16b	-gen,
32r	.
32a	ge-
=6	=6
2a#	-sun-
8dd}	-den,}
{8b	{die
=7	=7
8.b	som-
16b	-mer-
8.b	-spross
16b	ge-
8cc#	-braun-
8ee}	-ten,}
=8	=8
16r	.
{16b	{die
16b	im-
16b	-mer
8.b	froh
16b	ge-
8cc#	-laun-
8ee}	-ten,}
=9	=9
8r	.
{(4dd	{kreuz-
16cc#	|
16dd)	|
8ee-	-bra-
8a	-ven,
=10	=10
8r	.
[4dd	kreuz-
16dd]	|
16dd	-fi-
8aa	-de-
8cc}	-len,}
=11	=11
8r	.
{(4b	{tanz-
8gg)	|
16ff	-nim-
16ee	-mer-
16dd	-mu2-
16cc#	-den
=12	=12
2ee	See-
4dd}	-len;}
=13	=13
8r	.
{8dd	{die
8dd	un-
8dd	-term
8cc#	La-
8ccn	-chen
=14	=14
2ccn	wei-
4b}	-nen}
=15	=15
4r	.
8r	.
{8b	{und
8b	nur
8b	ge-
=16	=16
8.ffn	-bo-
16dd	-ren
8cc	schei-
8b}	-nen,}
8r	.
{8b	{die
=17	=17
4aa	Korn-
(16ff	-blu-
16cc)	|
16a	-men
16b	zu
8cc	ne-
8cc}	-cken,}
=18	=18
8r	.
{8a-	{und
16a-	den-
16b-	-noch
16cc	oft
16dd	ver-
8ee-	-steck-
8cc}	-en}
=19	=19
8r	.
{(8b-	{die
8ee-	weich-
8dd	-sten,
8cc	be-
8b-	-sten
=20	=20
4.gg	Her-
8ffn	|
8g)}	-zen,}
8r	.
=21	=21
16r	.
{16g	{im
[8een	Schling-
16een]	|
16a#	-ge-
8a#	-wa2chs
8r	.
8a#	von
=22	=22
8cc#	Scher-
8b}	-zen;}
4r	.
4r	.
=23	=23
{8b	{die
8b	man,
16r	.
16b	weiss
8ee#	Gott,
8r	.
8b	mit
=24	=24
8ff#	Ku2s-
8b}	-sen}
4r	.
8r	.
{8b	{er-
=25	=25
4.b	-sti-
8b	-cken
8.cc	wu2r-
16cc	-de
=26	=26
4cc#	mu2s-
8cc#}	-sen,}
8r	.
4r	.
=27	=27
{16dd	{wa2r'
16dd	man
8dd	nicht
8dd	im-
8dd	-mer
8ee-	ban-
8ee-}	-ge,}
=28	=28
16r	.
{16dd	{um-
[8dd	-ar-
16dd]	|
16dd	-mest
16dd	du
16dd	die
8ffn	Ran-
8ee-}	-ge,}
=29	=29
8r	.
{8cc#	{sie
16cc#	springt
16dd	ein
16ee	vol-
16ff#	-ler
8gg	Bran-
8cc#}	-der}
=30	=30
8r	.
{(4bb	{auf-
8gg)	|
16dd	-flam-
16b	-mend
16cc	aus-
16ee	-ein-
=31	=31
4dd	-an-
8g}	der!}
8r	.
4r	.
*-	*-
